X: 41998
T: Walrus, The
R: reel
M: 4/4
K: Amixolydian
|:Bd|e2A2 BABd|egfd e2dB|Gd (3ddd BABd|e2ge dBcd|
e2A2 BABd|egfd e2dB|GGBd edBG|A2A2 A2:|
|:Bd|e2a2 eedB|egfd e2dB|Gd (3ddd BABd|e2ge dBcd|
e2a2 eedB|egfd e2dB|cddB GABG|A2A2 A2:|
|:Bd|eA (3AAA BABd|egfd e2dB|cddB GGBd|e2ge dBcd|
eA (3AAA aAAg-|gAfA e2dB|GGBd edBG|A2A2 A2:|
|:eg|a2eg aged|egde a2ge|d2eg dB (3BBB|e2ge dBcd|
[1 eaag edge|aged e2dB|cddB GABG|A2A2 A2:|
[2 eA (3AAA aAAg-|gAfA e2dB|cddB GABG|A2A2 A2||

